images/collision_detection/AABB4.svg

<?xml version="1.0" encoding="UTF-8" standalone="no"?>
<svg
   width="267.04166pt"
   height="241.44881pt"
   viewBox="0 0 267.04166 241.44881"
   version="1.1"
   id="svg511"
   sodipodi:docname="AABB4.svg"
   inkscape:version="1.2.2 (b0a8486541, 2022-12-01)"
   xmlns:inkscape="http://www.inkscape.org/namespaces/inkscape"
   xmlns:sodipodi="http://sodipodi.sourceforge.net/DTD/sodipodi-0.dtd"
   xmlns="http://www.w3.org/2000/svg"
   xmlns:svg="http://www.w3.org/2000/svg">
  <sodipodi:namedview
     id="namedview513"
     pagecolor="#ffffff"
     bordercolor="#666666"
     borderopacity="1.0"
     inkscape:showpageshadow="2"
     inkscape:pageopacity="0.0"
     inkscape:pagecheckerboard="0"
     inkscape:deskcolor="#d1d1d1"
     inkscape:document-units="pt"
     showgrid="false"
     inkscape:zoom="2.557639"
     inkscape:cx="158.15367"
     inkscape:cy="121.59652"
     inkscape:window-width="1920"
     inkscape:window-height="1019"
     inkscape:window-x="0"
     inkscape:window-y="0"
     inkscape:window-maximized="1"
     inkscape:current-layer="svg511" />
  <defs
     id="defs490">
    <clipPath
       id="clip1">
      <path
         d="M 103,98 H 252.6875 V 208 H 103 Z m 0,0"
         id="path487" />
    </clipPath>
  </defs>
  <g
     id="surface1"
     transform="translate(14.356436,4.7573934)">
    <path
       style="fill:#ffffff;fill-opacity:1;fill-rule:nonzero;stroke:#000000;stroke-width:3.0189;stroke-linecap:round;stroke-linejoin:round;stroke-miterlimit:4;stroke-opacity:1"
       d="M 36.390625,44.617188 H 197.00781 V 164.32031 H 36.390625 Z m 0,0"
       id="path492" />
    <g
       clip-path="url(#clip1)"
       clip-rule="nonzero"
       id="g496">
      <path
         style="fill:none;stroke:#000000;stroke-width:3.0189;stroke-linecap:round;stroke-linejoin:round;stroke-miterlimit:4;stroke-opacity:1"
         d="M 104.95703,99.542969 H 251.17578 V 205.60937 H 104.95703 Z m 0,0"
         id="path494" />
    </g>
    <path
       style="fill:none;stroke:#000000;stroke-width:0.751181;stroke-linecap:butt;stroke-linejoin:miter;stroke-miterlimit:4;stroke-opacity:1"
       d="M 3.816406,93.101562 V 10.523438 h 88.640625"
       id="path498" />
    <path
       style="fill:#000000;fill-opacity:1;fill-rule:evenodd;stroke:#000000;stroke-width:0.80126;stroke-linecap:butt;stroke-linejoin:miter;stroke-miterlimit:4;stroke-opacity:1"
       d="m -85.589844,3.816406 3.003906,-3.007812 -10.515624,3.007812 10.515624,3.003906 z m 0,0"
       transform="rotate(-90)"
       id="path500" />
    <path
       style="fill:#000000;fill-opacity:1;fill-rule:evenodd;stroke:#000000;stroke-width:0.80126;stroke-linecap:butt;stroke-linejoin:miter;stroke-miterlimit:4;stroke-opacity:1"
       d="m -84.945312,-10.523438 3.007812,-3.003906 -10.519531,3.003906 10.519531,3.003907 z m 0,0"
       transform="scale(-1)"
       id="path502" />
    <path
       style="fill:none;stroke:#ff0000;stroke-width:1.66961;stroke-linecap:butt;stroke-linejoin:miter;stroke-miterlimit:4;stroke-opacity:1"
       d="M 36.390625,50.617188 V 236.69141"
       id="path504" />
    <path
       style="fill:none;stroke:#ff0000;stroke-width:1.66961;stroke-linecap:butt;stroke-linejoin:miter;stroke-miterlimit:4;stroke-opacity:1"
       d="M 197.00781,50.617188 V 236.69141"
       id="path506" />
    <path
       style="fill:none;stroke:#0000ff;stroke-width:1.66961;stroke-linecap:butt;stroke-linejoin:miter;stroke-miterlimit:4;stroke-opacity:1"
       d="M 105,49.6875 V 235.76172"
       id="path508" />
  </g>
  <text
     xml:space="preserve"
     style="font-size:18px;line-height:1.25;font-family:'DejaVu Sans';-inkscape-font-specification:'DejaVu Sans';letter-spacing:0px;word-spacing:0px;stroke-width:0.75"
     x="-0.53613281"
     y="95.691582"
     id="text794"><tspan
       sodipodi:role="line"
       id="tspan792"
       style="stroke-width:0.75"
       x="-0.53613281"
       y="95.691582">y</tspan></text>
  <text
     xml:space="preserve"
     style="font-size:18px;line-height:1.25;font-family:'DejaVu Sans';-inkscape-font-specification:'DejaVu Sans';letter-spacing:0px;word-spacing:0px;stroke-width:0.75"
     x="96.433281"
     y="9.84375"
     id="text798"><tspan
       sodipodi:role="line"
       id="tspan796"
       style="stroke-width:0.75"
       x="96.433281"
       y="9.84375">x</tspan></text>
</svg>

<?xml version="1.0" encoding="UTF-8"?>
<svg xmlns="http://www.w3.org/2000/svg" xmlns:xlink="http://www.w3.org/1999/xlink" width="252.685974pt" height="255.118103pt" viewBox="0 0 252.685974 255.118103" version="1.1">
<defs>
<clipPath id="clip1">
  <path d="M 103 98 L 252.6875 98 L 252.6875 208 L 103 208 Z M 103 98 "/>
</clipPath>
</defs>
<g id="surface1">
<path style="fill-rule:nonzero;fill:rgb(100%,100%,100%);fill-opacity:1;stroke-width:3.018898;stroke-linecap:round;stroke-linejoin:round;stroke:rgb(0%,0%,0%);stroke-opacity:1;stroke-miterlimit:4;" d="M 36.390625 44.617188 L 197.007812 44.617188 L 197.007812 164.320312 L 36.390625 164.320312 Z M 36.390625 44.617188 "/>
<g clip-path="url(#clip1)" clip-rule="nonzero">
<path style="fill:none;stroke-width:3.018898;stroke-linecap:round;stroke-linejoin:round;stroke:rgb(0%,0%,0%);stroke-opacity:1;stroke-miterlimit:4;" d="M 104.957031 99.542969 L 251.175781 99.542969 L 251.175781 205.609375 L 104.957031 205.609375 Z M 104.957031 99.542969 "/>
</g>
<path style="fill:none;stroke-width:0.751181;stroke-linecap:butt;stroke-linejoin:miter;stroke:rgb(0%,0%,0%);stroke-opacity:1;stroke-miterlimit:4;" d="M 3.816406 93.101562 L 3.816406 10.523438 L 92.457031 10.523438 "/>
<path style="fill-rule:evenodd;fill:rgb(0%,0%,0%);fill-opacity:1;stroke-width:0.80126;stroke-linecap:butt;stroke-linejoin:miter;stroke:rgb(0%,0%,0%);stroke-opacity:1;stroke-miterlimit:4;" d="M -85.589844 3.816406 L -82.585938 0.808594 L -93.101562 3.816406 L -82.585938 6.820312 Z M -85.589844 3.816406 " transform="matrix(0,-1,1,0,0,0)"/>
<path style="fill-rule:evenodd;fill:rgb(0%,0%,0%);fill-opacity:1;stroke-width:0.80126;stroke-linecap:butt;stroke-linejoin:miter;stroke:rgb(0%,0%,0%);stroke-opacity:1;stroke-miterlimit:4;" d="M -84.945312 -10.523438 L -81.9375 -13.527344 L -92.457031 -10.523438 L -81.9375 -7.519531 Z M -84.945312 -10.523438 " transform="matrix(-1,0,0,-1,0,0)"/>
<path style="fill:none;stroke-width:1.669606;stroke-linecap:butt;stroke-linejoin:miter;stroke:rgb(100%,0%,0%);stroke-opacity:1;stroke-miterlimit:4;" d="M 36.390625 50.617188 L 36.390625 236.691406 "/>
<path style="fill:none;stroke-width:1.669606;stroke-linecap:butt;stroke-linejoin:miter;stroke:rgb(100%,0%,0%);stroke-opacity:1;stroke-miterlimit:4;" d="M 197.007812 50.617188 L 197.007812 236.691406 "/>
<path style="fill:none;stroke-width:1.669606;stroke-linecap:butt;stroke-linejoin:miter;stroke:rgb(0%,0%,100%);stroke-opacity:1;stroke-miterlimit:4;" d="M 105 49.6875 L 105 235.761719 "/>
</g>
</svg>
